X:1
T:[ID 2-3b]
T:[ID 2-3b]
T:Bezeichnung standardisiert: Menuett Menuet 2.
T:Urheber unbekannt Datum in der hier transkribierten schriftlichen Quelle: 1776 - 1791
C:Urheber unbekannt
C:Datum in der hier transkribierten schriftlichen Quelle: 1776 - 1791
L:1/8
M:3/4
K:A
V:1 treble 
V:1
 d3 cBd | c2 TA4 | BGcAdB | .e2 .f2 .g2 | d3 cBd | c2 TA4 | (gd)(dc)(cB) |{c} TB4 A2 :: d2 dddd | %9
 e2 eeee | f2 fdef | gfga g2 | d3 cBd | c2 TA4 | (3gfe dcBA |{B} TA4 G2 :| %16

